!!!SOCIAL_FUNCTION:	songs for the entertainment of children
!!!PDT:	1929
!!!OTL: No_163_The_Squirrel_and_the_Mesquite_Beans.krn
!!!REG: Southwest
!!!LANG: Non-Tone
!!!LING_GROUP: Uto-Aztecan
**kern
*staff1
=1-
*clefF4
*k[f#c#g#]
*M2/4
8.E\L
16B\Jk
8.B\L
16F#\Jk
=2
8A\L
16A\L
16A\JJ
8.F#\L
32E\Jkk
32r
=3
8.F#\L
16A\Jk
8.A\L
16E\Jk
=4
8F#\L
16F#\L
16F#\JJ
8E\
8r
=5||
*M3/8
8F#\L
16F#\L
16E\
16F#\
16E\JJ
=6||
*M2/4
8F#\L
16E\L
16E\JJ
8E\
8r
=7
8.F#\L
16F#\Jk
8.F#/L
16C#/Jk
=8
12F#\L
12F#\
12F#\J
8.F#\L
16E\Jk
=9||
*M3/8
16F#\LK
8.E\
16E\L
16C#\JJ
=10||
*M2/4
16F#\LK
8.E\J
8E\L
16E\L
16D\JJ
=11
16F#\LK
8.F#\J
8E\L
16E\L
16E\JJ
=12
4E\
4r
==
*-
